X: 1
T:Barrowburn Reel
M:4/4
L:1/8
C:Addie Harper
R:Reel
K:D
FE|"D"D2 (3FED FAAd|"G"B2 BA BcdB|"D"A3B "Bm"d3e|"E7"fedB "A7"AFDE|
"D"D2 (3FED FAAd|"G"B2 BA Bcde|"D"f2af "Em"e2fe|"A7"dBAB "D"d2:|
|:cd|"A"e2 ef ecAc|"D"f2  fg fdAd|"A"g2 ga gece|"D"a2 ag "B7"f2 ef|
"Em"g2 ga "A7"gece|"D"a3g "B7"f2 ef|"G"g2ag "Em"f2ed|"A7"BAAB "D"d2:|
Z:"This must be one of my most popular compositions. It came to me while on holiday in Northumberland just south of the Cheviot Hills near the little district of Barrowburn. It was the ideal setting for creating music. Later that night I sat down by the roadside at a little village called Henshaw near Bardon Mill and composed 'The Barrowburn Reel'." Addie Harper
